src/static/images/projects/ipld.svg

<?xml version="1.0" encoding="UTF-8"?>
<svg width="71px" height="81px" viewBox="0 0 71 81" version="1.1" xmlns="http://www.w3.org/2000/svg" xmlns:xlink="http://www.w3.org/1999/xlink">
    <!-- Generator: Sketch 50.2 (55047) - http://www.bohemiancoding.com/sketch -->
    <title>ipld</title>
    <desc>Created with Sketch.</desc>
    <defs></defs>
    <g id="Page-1" stroke="none" stroke-width="1" fill="none" fill-rule="evenodd">
        <g id="ipld" fill-rule="nonzero">
            <path d="M70.638,58.696 L70.638,21.994 C70.638,20.744 69.971,19.589 68.888,18.964 L37.103,0.613 C36.0206598,-0.0116513227 34.6873402,-0.0116513227 33.605,0.613 L1.82,18.963 C0.737131109,19.5877182 0.0699764098,20.7428489 0.07,21.993 L0.07,58.696 C0.07,59.946 0.737,61.101 1.82,61.726 L33.605,80.076 C34.6873402,80.7006513 36.0206598,80.7006513 37.103,80.076 L68.888,61.726 C69.9708689,61.1012818 70.6380236,59.9461511 70.638,58.696 Z" id="Shape" fill="#1D74F2"></path>
            <g id="Group" transform="translate(3.754000, 4.692000)" fill="#FFFFFF">
                <path d="M31.6,70.24 L1.23,52.455 L1.23,19.034 L31.6,1.066 L31.643,1.09 L61.97,18.317 L61.97,52.456 L61.927,52.481 L31.6,70.239 L31.6,70.24 Z M1.402,52.356 L31.6,70.039 L61.798,52.357 L61.798,18.417 L31.6,1.266 L1.402,19.132 L1.402,52.357 L1.402,52.356 Z" id="Shape"></path>
                <polygon id="Shape" points="30.909 10.953 32.291 10.953 32.291 70.139 30.909 70.139"></polygon>
                <circle id="Oval" cx="31.6" cy="11.068" r="2.175"></circle>
                <polygon id="Shape" points="30.939 27.127 24.297 22.931 24.297 14.883 25.679 14.883 25.679 22.17 31.677 25.959"></polygon>
                <g transform="translate(31.346000, 32.284000)">
                    <polygon id="Shape" points="0.784 22.438 0.046 21.27 22.776 6.91 22.776 3.77 24.159 3.77 24.159 7.673"></polygon>
                    <circle id="Oval" cx="23.468" cy="2.308" r="2.175"></circle>
                </g>
                <path d="M42.357,31.103 L43.739,31.103 L43.739,47.224 L42.357,47.224 L42.357,31.103 Z M31.086,43.632 L14.26,34.383 L14.26,27.01 L15.642,27.01 L15.642,33.59 L31.781,42.438 L31.086,43.632 Z" id="Shape"></path>
                <circle id="Oval" cx="14.951" cy="26.396" r="2.175"></circle>
                <circle id="Oval" cx="24.988" cy="16.52" r="2.175"></circle>
                <g transform="translate(31.158000, 22.149000)">
                    <path d="M14.308,3.784 L14.308,6.927 L0.124,15.887 C0.135,16.42 0.154,16.955 0.173,17.49 L15.69,7.688 L15.69,3.785 L14.308,3.785 L14.308,3.784 Z" id="Shape"></path>
                    <circle id="Oval" cx="14.999" cy="2.323" r="2.175"></circle>
                </g>
                <polygon id="Shape" points="32.08 31.103 38.721 26.908 38.721 18.859 37.34 18.859 37.34 26.146 31.342 29.935"></polygon>
                <circle id="Oval" cx="38.03" cy="18.859" r="2.175"></circle>
                <circle id="Oval" cx="24.657" cy="30.397" r="2.175"></circle>
                <polygon id="Shape" points="23.966 30.917 25.348 30.917 25.348 39.604 23.966 39.604"></polygon>
                <g transform="translate(6.194000, 34.537000)">
                    <polygon id="Shape" points="25.031 20.367 25.77 19.199 3.038 6.804 3.038 3.662 1.656 3.662 1.656 7.566"></polygon>
                    <circle id="Oval" cx="2.347" cy="2.201" r="2.175"></circle>
                </g>
                <polygon id="Shape" points="16.78 35.652 18.018 35.652 18.018 46.823 16.78 46.823"></polygon>
                <circle id="Oval" cx="31.6" cy="69.912" r="1.213"></circle>
                <g transform="translate(0.000000, 18.020000)" id="Oval">
                    <circle cx="1.23" cy="34.437" r="1.213"></circle>
                    <circle cx="1.23" cy="1.351" r="1.213"></circle>
                </g>
                <g transform="translate(60.627000, 18.020000)" id="Oval">
                    <circle cx="1.343" cy="34.359" r="1.213"></circle>
                    <circle cx="1.343" cy="1.273" r="1.213"></circle>
                </g>
                <circle id="Oval" cx="31.599" cy="1.393" r="1.213"></circle>
            </g>
        </g>
    </g>
</svg>

<svg xmlns="http://www.w3.org/2000/svg" viewBox="0 0 71 81"><g fill-rule="nonzero" fill="none"><path d="M70.638 58.696V21.994c0-1.25-.667-2.405-1.75-3.03L37.103.613a3.499 3.499 0 00-3.498 0L1.82 18.963a3.498 3.498 0 00-1.75 3.03v36.703c0 1.25.667 2.405 1.75 3.03l31.785 18.35a3.499 3.499 0 003.498 0l31.785-18.35a3.498 3.498 0 001.75-3.03z" fill="#1D74F2"/><g transform="translate(3.754 4.692)" fill="#FFF"><path d="M31.6 70.24L1.23 52.455V19.034L31.6 1.066l.043.024L61.97 18.317v34.139l-.043.025L31.6 70.239v.001zM1.402 52.356L31.6 70.039l30.198-17.682v-33.94L31.6 1.266 1.402 19.132v33.225-.001z"/><path d="M30.909 10.953h1.382v59.186h-1.382z"/><circle cx="31.6" cy="11.068" r="2.175"/><path d="M30.939 27.127l-6.642-4.196v-8.048h1.382v7.287l5.998 3.789z"/><g transform="translate(31.346 32.284)"><path d="M.784 22.438L.046 21.27l22.73-14.36V3.77h1.383v3.903z"/><circle cx="23.468" cy="2.308" r="2.175"/></g><path d="M42.357 31.103h1.382v16.121h-1.382V31.103zM31.086 43.632L14.26 34.383V27.01h1.382v6.58l16.139 8.848-.695 1.194z"/><circle cx="14.951" cy="26.396" r="2.175"/><circle cx="24.988" cy="16.52" r="2.175"/><g transform="translate(31.158 22.149)"><path d="M14.308 3.784v3.143L.124 15.887c.011.533.03 1.068.049 1.603L15.69 7.688V3.785h-1.382v-.001z"/><circle cx="14.999" cy="2.323" r="2.175"/></g><path d="M32.08 31.103l6.641-4.195v-8.049H37.34v7.287l-5.998 3.789z"/><circle cx="38.03" cy="18.859" r="2.175"/><circle cx="24.657" cy="30.397" r="2.175"/><path d="M23.966 30.917h1.382v8.687h-1.382z"/><g transform="translate(6.194 34.537)"><path d="M25.031 20.367l.739-1.168L3.038 6.804V3.662H1.656v3.904z"/><circle cx="2.347" cy="2.201" r="2.175"/></g><path d="M16.78 35.652h1.238v11.171H16.78z"/><circle cx="31.6" cy="69.912" r="1.213"/><g transform="translate(0 18.02)"><circle cx="1.23" cy="34.437" r="1.213"/><circle cx="1.23" cy="1.351" r="1.213"/></g><g transform="translate(60.627 18.02)"><circle cx="1.343" cy="34.359" r="1.213"/><circle cx="1.343" cy="1.273" r="1.213"/></g><circle cx="31.599" cy="1.393" r="1.213"/></g></g></svg>
